X:65
T:Dunt the Grund at Leisure
S:Petrie's Third Collection of Strathspey Reels and Country Dances &c.
Z:Steve Wyrick <sjwyrick'at'gmail'dot'com>, 7/31/05
N:Petrie's Third Collection, page 25
L:1/8
M:C
R:Strathspey
K:G
"^Slow"
G>DG>B A2 GE|G>DG<B d>eg<d|caBg A2GE|G/A/B/c/ d/c/B/A/ G2 G,2:|g<dg>b a2 ge|
g<dg>b g<dg<b|g<dg<b a2 ge|gddg dg/a/ bg|a>eg>B A2(GE)|G/A/B/c/ d/c/B/A/ G2G,f|g>dg>b a2ge|
g<dg<b g<dg<b|g<dg<b a2 g>e|(d/b/a/b/) (g/a/f/g/) (e/g/f/g/) (d/g/f/g/)|B/d/g/f/ e/d/c/B/ A2 GE|G/A/B/c/ d/c/B/A/ G2G,2|]
%Note the last part is 12 bars. -SW
